X:1
T:Chorale Prelude
T:Chorale Prelude
T:"Herr Jesu Christ dich zu uns wend'
T:J.S. Bach (1685-1750)
T:BWV 749
C:Johann Sebastian Bach (1685-1750)
%%score { ( 1 4 ) | ( 2 5 ) | 3 }
L:1/8
Q:1/4=92
M:4/4
K:G
V:1 treble nm="Organ" snm="Org."
V:4 treble 
V:2 bass 
V:5 bass 
V:3 bass 
V:1
"^Andante" z2 G2 B2 d2 | B2 A2 B2 ^c2 | d6 ^c2 | d2 =cB cedc | B2 B4 A2 | B2 c2 d2 e2 | A2 d4 ^c2 | %7
 d2 d4 c2 | B2 e4 d2 | ^c2 f4 e2 | d2 g4 f2 | a2 e2 f4 | g2 a2 g2 g2 | g2 f2 g2 g2 | g6 f2- | %15
 f2 e4 d2- | d2 c4 B2- | B2 A4 G2- | G2 F2 G4- | G8- | G8- | G2 AG F4 | G8- | !fermata!G8 |] %24
V:2
 z8 | z8 | z8 | z8 | z2 G,A, B,CDC | B,2 A,2 B,2 ^C2 | D2 D,2 F,2 A,2 | F,2 D,2 E,2 F,2 | %8
 G,2 E,2 F,2 ^G,2 | A,2 F,2 ^G,2 ^A,2 | B,2 G,2 D2 D,2 | F,2 A,2 F,2 D,2 | E,2 F,2 G,2 G,,2 | %13
 B,,2 D,2 B,,2 A,,2 | B,,2 ^C,2 z2 D2 | E2 =C2 D2 B,2 | C2 A,2 B,2 G,2 | A,2 F,2 G,4 | %18
 A,4 B,2 D2- | D2 CB, C4- | C2 B,A, B,4 | A,6 B,C | B,2 D2 C2 A,2 | B,8 |] %24
V:3
 z8 | z8 | z8 | z8 | z8 | z8 | z8 | z8 | z8 | z8 | z8 | z8 | z8 | z8 | z2 z2 D,4 | D,8- | D,8- | %17
 D,8 | D,4 G,,4- | G,,8- | G,,8- | G,,8- | G,,8- | !fermata!G,,8 |] %24
V:4
 x8 | x8 | z2 D2 F2 A2 | F2 D2 E2 F2 | G2 G4 F2 | G8- | G2 F4 E2 | A2 F2 G2 A2 | G2 ^G2 A2 B2 | %9
 E2 ^A2 B2 ^c2 | F2 B2 A2 d2 | d2 ^c2 d4 | =c3 d B2 [Bd]2 | [Bd]2 [Ad]2 [Bd]2 c2 | %14
 [Bd]2 [Ae]2 [Ad]4 | [GB]4 [FA]4 | [EG]4 [DF]4 | [CE]4 [B,D]4 | D4 D2 =F2 | E4 E2 DC | D4 D2 CB, | %21
 C6 DE | D2 =F2 E2 C2 | D8 |] %24
V:5
 x8 | x8 | x8 | x8 | x8 | x8 | x8 | x8 | x8 | x8 | x8 | x8 | x8 | x8 | x8 | x8 | x8 | x8 | %18
 A,4 G,4- | G,8- | G,8- | G,8- | G,8- | !fermata!G,8 |] %24

